rospo-icon-theme-classic-common/16x16/apps/distributor-logo-archlinux.svg

<svg height="16" width="16" xmlns="http://www.w3.org/2000/svg"><path d="m7.9986217.0004c-.712304 1.745978-1.141911 2.888044-1.934952 4.581943.486219.515313.9670543 1.115386 1.9363303 1.793137-1.0420509-.428715-1.6368302-.859109-2.168017-1.305743-1.0149256 2.117413-2.6050881 5.133535-5.83198275 10.930263 2.53623465-1.463862 4.30221635-2.36637 6.13458755-2.710766-.07868-.338316-.1234171-.704271-.120376-1.086106l.0028-.08124c.04024-1.624539 1.103283-3.119694 2.08668-3.121888.983396-.0022 1.9397132 1.804225 1.8994652 3.428765-.0076.305716-.04206.599752-.1023132.872509 1.8123682.354475 3.5972492 1.254664 6.0991562 2.698726-.49334-.908029-.933669-1.726578-1.354154-2.506169-.662374-.513273-1.2366-1.181265-2.645846-1.904456.968636.251637 1.545542.541953 2.086132.866469-4.2752662-7.958301-4.6213362-9.015887-6.0876343-12.455844z" fill="#1793d1" fill-rule="evenodd"/></svg>

<svg xmlns="http://www.w3.org/2000/svg" width="16" height="16" version="1.1">
 <path d="M 7.9986217,4e-4 C 7.2863177,1.746378 6.8567107,2.888444 6.0636697,4.582343 6.5498887,5.097656 7.030724,5.697729 8,6.37548 6.9579491,5.946765 6.3631698,5.516371 5.831983,5.069737 4.8170574,7.18715 3.2268949,10.203272 2.5e-7,16 2.5362349,14.536138 4.3022166,13.63363 6.1345878,13.289234 6.0559078,12.950918 6.0111707,12.584963 6.0142118,12.203128 l 0.0028,-0.08124 C 6.0572518,10.497349 7.1202948,9.002194 8.1036918,9 c 0.983396,-0.0022 1.9397132,1.804225 1.8994652,3.428765 -0.0076,0.305716 -0.04206,0.599752 -0.1023132,0.872509 C 11.713212,13.655749 13.498093,14.555938 16,16 15.50666,15.091971 15.066331,14.273422 14.645846,13.493831 13.983472,12.980558 13.409246,12.312566 12,11.589375 c 0.968636,0.251637 1.545542,0.541953 2.086132,0.866469 C 9.8108658,4.497543 9.4647958,3.439957 7.9984977,0 Z" style="fill:#1793d1;fill-rule:evenodd"/>
</svg>
